public/images/case-studies/megalot/tech-icon3.svg

<svg width="97" height="96" viewBox="0 0 97 96" fill="none" xmlns="http://www.w3.org/2000/svg">
<path d="M86.4921 10.4H10.5088V85.6H86.4921V10.4Z" fill="#F7DF1E"/>
<path d="M61.7773 69.4337C63.3091 71.9078 65.302 73.7264 68.8267 73.7264C71.7876 73.7264 73.6791 72.2625 73.6791 70.2397C73.6791 67.8158 71.7357 66.9572 68.4766 65.547L66.6901 64.7888C61.5335 62.6156 58.1078 59.8931 58.1078 54.1377C58.1078 48.836 62.1914 44.8 68.5732 44.8C73.1166 44.8 76.383 46.3643 78.7368 50.4599L73.1721 53.9944C71.9469 51.8212 70.6252 50.965 68.5732 50.965C66.4801 50.965 65.1535 52.2785 65.1535 53.9944C65.1535 56.1151 66.4813 56.9736 69.5473 58.2871L71.3338 59.0441C77.4054 61.6197 80.8335 64.2455 80.8335 70.149C80.8335 76.5134 75.7794 80 68.992 80C62.3555 80 58.068 76.8716 55.9701 72.7712L61.7773 69.4337ZM36.5337 70.0463C37.6563 72.0165 38.6775 73.6822 41.1327 73.6822C43.4804 73.6822 44.9615 72.7735 44.9615 69.2403V45.2036H52.1074V69.3358C52.1074 76.6555 47.7692 79.9869 41.4369 79.9869C35.7153 79.9869 32.4019 77.0579 30.7168 73.53L36.5337 70.0463Z" fill="black"/>
</svg>

<svg xmlns="http://www.w3.org/2000/svg" width="97" height="96" fill="none" xmlns:v="https://vecta.io/nano"><path d="M86.492 10.4H10.509v75.2h75.983V10.4z" fill="#f7df1e"/><path d="M61.777 69.434c1.532 2.474 3.525 4.293 7.049 4.293 2.961 0 4.852-1.464 4.852-3.487 0-2.424-1.943-3.282-5.203-4.693l-1.787-.758c-5.157-2.173-8.582-4.896-8.582-10.651 0-5.302 4.084-9.338 10.465-9.338 4.543 0 7.81 1.564 10.164 5.66l-5.565 3.535c-1.225-2.173-2.547-3.029-4.599-3.029-2.093 0-3.42 1.313-3.42 3.029 0 2.121 1.328 2.979 4.394 4.293l1.786.757c6.072 2.576 9.5 5.201 9.5 11.105 0 6.364-5.054 9.851-11.841 9.851-6.637 0-10.924-3.128-13.022-7.229l5.807-3.337zm-25.244.613c1.123 1.97 2.144 3.636 4.599 3.636 2.348 0 3.829-.909 3.829-4.442V45.204h7.146v24.132c0 7.32-4.338 10.651-10.67 10.651-5.722 0-9.035-2.929-10.72-6.457l5.817-3.484z" fill="#000"/></svg>
